data/pieces/fancy/blackPawn.svg

<svg xmlns="http://www.w3.org/2000/svg" width="1000pt" height="1000pt" viewBox="0 0 1000 1000"><path d="M278 844c0-65 28-128 84-172 35-27 51-57 51-82 0-12-9-19-21-28-13-10-42-34-42-76 0-30 13-58 34-78 19-18 36-43 36-60 0-10-6-13-13-13h-40c-10 0-10-4-10-8s4-10 7-13l81-86c3-3 7-7 7-13s-4-11-10-16c-9-8-16-24-16-43 0-35 26-70 74-70s74 35 74 70c0 19-7 35-16 43-6 5-10 10-10 16s4 10 7 13l81 86c3 3 7 9 7 13s0 8-10 8h-40c-7 0-13 3-13 13 0 17 17 42 36 60 21 20 34 48 34 78 0 42-29 66-42 76-12 9-21 16-21 28 0 25 16 55 51 82 56 44 84 107 84 172 0 8 0 13-2 22H280c-2-9-2-14-2-22" style="stroke-width:2;stroke-linecap:butt;stroke-linejoin:miter;stroke:#fff;stroke-opacity:1;stroke-miterlimit:10;fill-rule:nonzero;fill:#fff;fill-opacity:1"/><path d="M278 844c0-65 28-128 84-172 35-27 51-57 51-82 0-12-9-19-21-28-13-10-42-34-42-76 0-30 13-58 34-78 19-18 36-43 36-60 0-10-6-13-13-13h-40c-10 0-10-4-10-8s4-10 7-13l81-86c3-3 7-7 7-13s-4-11-10-16c-9-8-16-24-16-43 0-35 26-70 74-70s74 35 74 70c0 19-7 35-16 43-6 5-10 10-10 16s4 10 7 13l81 86c3 3 7 9 7 13s0 8-10 8h-40c-7 0-13 3-13 13 0 17 17 42 36 60 21 20 34 48 34 78 0 42-29 66-42 76-12 9-21 16-21 28 0 25 16 55 51 82 56 44 84 107 84 172 0 8 0 13-2 22H280c-2-9-2-14-2-22" style="stroke:none;fill-rule:nonzero;fill:#000;fill-opacity:1"/></svg>

<?xml version="1.0" encoding="UTF-8"?>
<!--
	(c) 2010 Alexey Kryukov

    This work is free; you can redistribute it and/or modify
    it under the terms of the GNU General Public License as published by
    the Free Software Foundation; either version 2 of the License, or
    (at your option) any later version.

    This work is distributed in the hope that it will be useful,
    but WITHOUT ANY WARRANTY; without even the implied warranty of
    MERCHANTABILITY or FITNESS FOR A PARTICULAR PURPOSE.  See the
    GNU General Public License for more details.

    You should have received a copy of the GNU General Public License
    along with this program; if not, write to the Free Software
    Foundation, Inc., 51 Franklin Street, Fifth Floor, Boston, MA 02110-1301 USA
-->
<svg xmlns="http://www.w3.org/2000/svg" xmlns:xlink="http://www.w3.org/1999/xlink" width="1000pt" height="1000pt" viewBox="0 0 1000 1000" version="1.1">
<g id="surface0">
<path style="stroke-width:2;stroke-linecap:butt;stroke-linejoin:miter;stroke:white;stroke-opacity:1;stroke-miterlimit:10;fill-rule:nonzero;fill:white;fill-opacity:1;" d="M 278 844 C 278 779 306 716 362 672 C 397 645 413 615 413 590 C 413 578 404 571 392 562 C 379 552 350 528 350 486 C 350 456 363 428 384 408 C 403 390 420 365 420 348 C 420 338 414 335 407 335 L 367 335 C 357 335 357 331 357 327 C 357 323 361 317 364 314 L 445 228 C 448 225 452 221 452 215 C 452 209 448 204 442 199 C 433 191 426 175 426 156 C 426 121 452 86 500 86 C 548 86 574 121 574 156 C 574 175 567 191 558 199 C 552 204 548 209 548 215 C 548 221 552 225 555 228 L 636 314 C 639 317 643 323 643 327 C 643 331 643 335 633 335 L 593 335 C 586 335 580 338 580 348 C 580 365 597 390 616 408 C 637 428 650 456 650 486 C 650 528 621 552 608 562 C 596 571 587 578 587 590 C 587 615 603 645 638 672 C 694 716 722 779 722 844 C 722 852 722 857 720 866 L 280 866 C 278 857 278 852 278 844 "/>
<path style="stroke:none;fill-rule:nonzero;fill:black;fill-opacity:1;" d="M 278 844 C 278 779 306 716 362 672 C 397 645 413 615 413 590 C 413 578 404 571 392 562 C 379 552 350 528 350 486 C 350 456 363 428 384 408 C 403 390 420 365 420 348 C 420 338 414 335 407 335 L 367 335 C 357 335 357 331 357 327 C 357 323 361 317 364 314 L 445 228 C 448 225 452 221 452 215 C 452 209 448 204 442 199 C 433 191 426 175 426 156 C 426 121 452 86 500 86 C 548 86 574 121 574 156 C 574 175 567 191 558 199 C 552 204 548 209 548 215 C 548 221 552 225 555 228 L 636 314 C 639 317 643 323 643 327 C 643 331 643 335 633 335 L 593 335 C 586 335 580 338 580 348 C 580 365 597 390 616 408 C 637 428 650 456 650 486 C 650 528 621 552 608 562 C 596 571 587 578 587 590 C 587 615 603 645 638 672 C 694 716 722 779 722 844 C 722 852 722 857 720 866 L 280 866 C 278 857 278 852 278 844 "/>
</g>
</svg>
